X:835
M:C|
L:1/8
K:D
f/g/|fd d/d/d geeg|fd d/d/d eAAg|fd d/d/d geeg|faef d2dg|
fd d/d/d geeg|fd d/d/d eAAg|fd d/d/d geeg faef dcBA||

